X:1
T:Title
%%score { ( 1 3 ) | 2 }
L:1/8
M:4/4
K:Bb
V:1 treble nm="Grand Piano"
V:3 treble 
V:2 bass 
V:1
 z4 z[Q:1/4=78] [B,DF][G,_D=E][B,=DF] |[M:3/4] [B,EG]3 [B,GB] [B,FA][B,EG] | %2
 [B,DF]>[F,D] [B,DF]2 z [B,DF] | [A,CF]>[A,C] [A,CF]3 [A,EG] | %4
[M:4/4] [B,DF][DF][K:bass] [A,CE]>[F,A,C] [F,B,D]2 z D |[M:3/4] D[K:treble]G B3 B | %6
[M:7/8] B[Bd][Ac] [GB] [^FA]2 z |[M:1/8] [^FA] |[M:3/4] G>G G[GB] [A,FA][B,EG] | %9
 D2- [DB]2 [Ec]2[Q:1/4=77][Q:1/4=76][Q:1/4=75][Q:1/4=73][Q:1/4=72][Q:1/4=71][Q:1/4=70][Q:1/4=69][Q:1/4=68] | %10
[M:5/8] [DB]-[DB]- [DB]3[Q:1/4=67][Q:1/4=65][Q:1/4=64][Q:1/4=63][Q:1/4=62][Q:1/4=61][Q:1/4=60] |] %11
V:2
 z4 z B,,B,,B,, |[M:3/4] E,3 E, E,E, | B,,>B,, B,,2 z B,, | F,>F, F,3 F, | %4
[M:4/4] F,F, F,,>F,, B,,2 z B, |[M:3/4] [G,B,][K:treble][G,B,D] [G,DG]3 [G,DG] | %6
[M:7/8] [G,DG][G,D][K:bass][^F,D] [G,D] [D,D]2 z |[M:1/8] [D,C] | %8
[M:3/4] [E,B,]>[E,B,E] [E,B,E][E,G,] E,E, | F,2 F,2 [F,,F,]2 |[M:5/8] [B,,F,]-[B,,F,]- [B,,F,]3 |] %11
V:3
 x8 |[M:3/4] x6 | x6 | x6 |[M:4/4] x2[K:bass] x6 |[M:3/4] x[K:treble] x5 |[M:7/8] x7 |[M:1/8] x | %8
[M:3/4] x6 | [B,F]2 z2 z2 |[M:5/8] x5 |] %11

